X: 99
T:Maiden's Blush
M:6/8
L:1/8
S:Playford
K:D
A| def efd| c>BA d2 F|GAB ABc| d2 A FDd| def efd |c>BA d2 F |GAB ABc |d2 A FD:|
|:d| def efg |agd ecA| def efg|afd ecA|f a2 fa2|f a2 f a2|ABc| ABc| d2 A FD:|

